!!! OTL: Berkowitz564
!!! Chapter: 1
!!! Section: V
!!! Page: 143
!!! Mode: 
!!! Encoder: DJB
**kern
*staff1
*I"Piano
=1-
*clefF4
*k[]
*C:
*M4/4
4r
4F\
4F\
4F\
=2
4B-\
4B-\
2B-\
=3
4r
4B-\
4A\
4B-\
=4
2A-\
2E-\
=5
4D\
8D\L
8G\J
2F#\
=6
4F\
8F\L
8B-\J
2Bn\
=7
4d-\
4c\
4.G\
8A\
=8
8B\L
8A\J
4G#\
8G#\L
8F\J
4E\
=9
4D\
8D\L
8G\J
4G-\
4D-\
=10
!!linebreak:original
4E-\
4BB-/
4AA/
4r
==
*-
